src/raw/fireplace/icon_24.svg

<svg width="24" height="24" viewBox="0 0 24 24" fill="none" xmlns="http://www.w3.org/2000/svg">
<path d="M0.75 23H23.25" stroke="#71717A" stroke-width="1.5" stroke-linecap="round" stroke-linejoin="round"/>
<path d="M18 23V11.625C18 10.7275 17.3553 10 16.56 10H7.44C6.64471 10 6 10.7275 6 11.625V23" stroke="#71717A" stroke-width="1.5" stroke-linecap="round" stroke-linejoin="round"/>
<path d="M22 23V3C22 1.89543 21.1046 1 20 1H4C2.89543 1 2 1.89543 2 3V23" stroke="#71717A" stroke-width="1.5" stroke-linecap="round" stroke-linejoin="round"/>
<path d="M12.0103 23C11.2361 23 10.4936 22.6935 9.94612 22.1479C8.29478 20.4966 9.17459 18.1491 9.82091 17.1818L11.2805 18.6364L12.7401 15C16.0485 18.4909 15.0082 21.2198 14.0745 22.1479C13.527 22.6935 12.7845 23 12.0103 23Z" stroke="#71717A" stroke-width="1.5" stroke-linecap="round" stroke-linejoin="round"/>
</svg>

<svg xmlns="http://www.w3.org/2000/svg" width="24" height="24" fill="none" viewBox="0 0 24 24">
  <path stroke="#3F3F46" stroke-linecap="round" stroke-linejoin="round" stroke-width="1.5"
    d="M.75 23h22.5M18 23V11.625c0-.898-.645-1.625-1.44-1.625H7.44C6.645 10 6 10.727 6 11.625V23" />
  <path stroke="#3F3F46" stroke-linecap="round" stroke-linejoin="round" stroke-width="1.5"
    d="M22 23V3a2 2 0 0 0-2-2H4a2 2 0 0 0-2 2v20" />
  <path stroke="#3F3F46" stroke-linecap="round" stroke-linejoin="round" stroke-width="1.5"
    d="M12.01 23a2.924 2.924 0 0 1-2.064-.852c-1.651-1.651-.771-3.999-.125-4.966l1.46 1.454L12.74 15c3.308 3.49 2.267 6.22 1.334 7.148A2.924 2.924 0 0 1 12.01 23Z" />
</svg>
